X: 141
T: REEL: Maud Millar
C: C: Trad.; S: Various
C: Set Leaders: Mars, Anton
Z: Mars Agliullin ed., Anton Zille ed.; slainte at The Session
N: https://thesession.org/members/26966/sets/94255
R: Reel
M: 4/4
L: 1/8
Q: 1/2=100
K: Gmaj
gf|edBA GEDE|G2BG d2Bd|eBdB A2GA|Beed efgf|
edBA GEDE|G2BG d2Bd|eBdB A2GA|Beed efge||
dega bg~g2|agef g2ge|dega bg~g2|aged eage|
dega bg~g2|agef ~g3a|bgaf gfed|Beed ef||

